X:1
T:Title
%%score { ( 1 4 5 ) | ( 2 3 ) }
L:1/8
Q:1/4=100
M:6/8
K:G
V:1 treble nm="Grand Piano"
V:4 treble 
V:5 treble 
V:2 treble 
V:3 treble 
V:1
 B3 c2 B | d2 d c3 | B2 A G2 A | D6 | E3 D2 [DG] | [Dc]2 [Dc] [DB]3 | .[^CB]3 [G,CG]2 [CB] | %7
w: Hutchison * *|||||||
[M:15/16] A3 z3/2 z3 |[M:3/4] B3 c2 B | d2 d c3 | B2 A G2 A | D6 | E3 D2 [B,DG] | %13
w: ||||||
[M:15/16] [Ed]->[Ed][Ed][^Dc]3/2- [Dc]3 |[M:7/8] B2 (3GG/4A/4 A3 [B,DG] |[M:3/4] [B,DG]6 |] %16
w: |||
V:2
 [G,DG]3 [G,DG]2 [G,DG] | [A,DF]2 [A,DF] [A,DF]3 | [D,CD]3 [D,CD]2 [D,CD] | [G,B,]6 | %4
 [C,G,C]3 [B,,G,]2 [B,,G,] | [A,,F,]2 [A,,F,] [G,,G,]3 | z2 A A,,2 [A,,G,] | %7
[M:15/16] .D3/2 z3/2 z3/2 z3 |[M:3/4][K:treble] [G,DG]3 [G,DG]2 [G,DG] | [A,DF]2 [A,DF] [A,DF]3 | %10
 [D,CD]3 [D,CD]2 [D,CD] | [G,B,]6 | [C,G,C]3 [B,,G,]2 G,, | %13
[M:15/16] [A,,A,]->[A,,A,][A,,A,][C,A,]3/2- [C,A,]3 |[M:7/8] [D,D]2- [D,B,D] [D,CD]3 [G,,G,] | %15
[M:3/4] [G,,G,]6 |] %16
V:3
 x6 | x6 | x6 | x6 | x6 | x6 | [A,,G,]3 z3 |[M:15/16] [D,F,]3 z3/2 z3 |[M:3/4][K:treble] x6 | x6 | %10
 x6 | x6 | x6 |[M:15/16] x15/2 |[M:7/8] G,2 z z z z2 |[M:3/4] x6 |] %16
V:4
 x6 | x6 | x6 | x6 | x6 | x6 | x6 |[M:15/16] z3/2 z/ EFG/-G/A-A3/2 |[M:3/4] x6 | x6 | x6 | x6 | %12
 x6 |[M:15/16] x15/2 |[M:7/8] x7 |[M:3/4] x6 |] %16
V:5
 x6 | x6 | x6 | x6 | x6 | x6 | x6 |[M:15/16] z D-<D z3/2 z3 |[M:3/4] x6 | x6 | x6 | x6 | x6 | %13
[M:15/16] x15/2 |[M:7/8] x7 |[M:3/4] x6 |] %16

